svgs/duotone/drone.svg

<svg xmlns="http://www.w3.org/2000/svg" viewBox="0 0 512 512"><!-- Font Awesome Pro 6.0.0-alpha2 by @fontawesome - https://fontawesome.com License - https://fontawesome.com/license (Commercial License) --><defs><style>.fa-secondary{opacity:.4}</style></defs><path d="M112 0C50.145 0 0 50.145 0 112S50.145 224 112 224S224 173.855 224 112S173.855 0 112 0ZM112 176C76.711 176 48 147.289 48 112S76.711 48 112 48S176 76.711 176 112S147.289 176 112 176ZM400 224C461.855 224 512 173.855 512 112S461.855 0 400 0S288 50.145 288 112S338.145 224 400 224ZM400 48C435.289 48 464 76.711 464 112S435.289 176 400 176S336 147.289 336 112S364.711 48 400 48ZM112 288C50.145 288 0 338.145 0 400S50.145 512 112 512S224 461.855 224 400S173.855 288 112 288ZM112 464C76.711 464 48 435.289 48 400S76.711 336 112 336S176 364.711 176 400S147.289 464 112 464ZM400 288C338.145 288 288 338.145 288 400S338.145 512 400 512S512 461.855 512 400S461.855 288 400 288ZM400 464C364.711 464 336 435.289 336 400S364.711 336 400 336S464 364.711 464 400S435.289 464 400 464Z" class="fa-secondary"/><path d="M172.55 380.211L143.751 401C143.251 418.375 129.001 432.125 111.626 432S80.126 417.75 80.001 400.375S93.626 368.75 111.001 368.25L131.79 339.451C151.091 345.783 166.218 360.91 172.55 380.211ZM143.751 111C143.251 93.625 129.001 79.875 111.626 80S80.126 94.25 80.001 111.625S93.626 143.25 111.001 143.75L131.79 172.549C151.091 166.217 166.218 151.09 172.55 131.789L143.751 111ZM400.376 432C417.751 431.875 431.876 417.75 432.001 400.375S418.376 368.75 401.001 368.25L380.212 339.451C360.911 345.783 345.784 360.91 339.452 380.211L368.251 401C368.751 418.375 383.001 432.125 400.376 432ZM380.212 172.549L401.001 143.75C418.376 143.25 432.126 129 432.001 111.625S417.751 80.125 400.376 80S368.751 93.625 368.251 111L339.452 131.789C345.784 151.09 360.911 166.217 380.212 172.549ZM352.001 299.191V212.809C328.864 201.762 310.239 183.137 299.192 160H212.809C201.763 183.137 183.138 201.762 160.001 212.809V299.191C183.138 310.238 201.763 328.863 212.809 352H299.192C310.239 328.863 328.864 310.238 352.001 299.191Z" class="fa-primary"/></svg>

<svg xmlns="http://www.w3.org/2000/svg" viewBox="0 0 512 512"><!--! Font Awesome Pro 6.0.0-alpha3 by @fontawesome - https://fontawesome.com License - https://fontawesome.com/license (Commercial License) --><defs><style>.fa-secondary{opacity:.4}</style></defs><path class="fa-primary" d="M172.5 380.2L143.8 401C143.3 418.4 129 432.1 111.6 432S80.13 417.8 80 400.4s13.62-31.63 31-32.13l20.79-28.8C151.1 345.8 166.2 360.9 172.5 380.2zM143.8 111C143.3 93.63 129 79.88 111.6 80S80.13 94.25 80 111.6s13.62 31.63 31 32.13l20.79 28.8c19.3-6.332 34.43-21.46 40.76-40.76L143.8 111zM400.4 432c17.38-.125 31.5-14.25 31.62-31.62s-13.62-31.63-31-32.13l-20.79-28.8c-19.3 6.332-34.43 21.46-40.76 40.76l28.8 20.79C368.7 418.4 383 432.1 400.4 432zM380.2 172.5L401 143.8C418.4 143.3 432.1 129 432 111.6S417.8 80.13 400.4 80s-31.63 13.62-32.13 31l-28.8 20.79C345.8 151.1 360.9 166.2 380.2 172.5zM352 299.2V212.8C328.9 201.8 310.2 183.1 299.2 160H212.8C201.8 183.1 183.1 201.8 160 212.8v86.38C183.1 310.2 201.8 328.9 212.8 352h86.38C310.2 328.9 328.9 310.2 352 299.2z"/><path class="fa-secondary" d="M112 0C50.14 0 0 50.14 0 112S50.14 224 112 224S224 173.9 224 112S173.9 0 112 0zM112 176c-35.29 0-64-28.71-64-64s28.71-64 64-64s64 28.71 64 64S147.3 176 112 176zM400 224C461.9 224 512 173.9 512 112S461.9 0 400 0S288 50.14 288 112S338.1 224 400 224zM400 48c35.29 0 64 28.71 64 64s-28.71 64-64 64s-64-28.71-64-64S364.7 48 400 48zM112 288C50.14 288 0 338.1 0 400S50.14 512 112 512S224 461.9 224 400S173.9 288 112 288zM112 464c-35.29 0-64-28.71-64-64s28.71-64 64-64s64 28.71 64 64S147.3 464 112 464zM400 288c-61.86 0-112 50.14-112 112s50.14 112 112 112s112-50.14 112-112S461.9 288 400 288zM400 464c-35.29 0-64-28.71-64-64s28.71-64 64-64s64 28.71 64 64S435.3 464 400 464z"/></svg>
